32x32/apps/com.github.artemanufrij.webpin.svg

<svg height="32" width="32" xmlns="http://www.w3.org/2000/svg"><path d="m16 6c-3.883 0-7.19 2.305-8.613 5.568-3.615.521-6.387 3.509-6.387 7.159 0 4.017 3.358 7.273 7.5 7.273h15.938c3.624 0 6.562-2.849 6.562-6.364 0-3.266-2.533-5.943-5.801-6.306-.852-4.17-4.649-7.33-9.199-7.33z" fill="#3aa8c8"/><path d="m1.025 19.195a7.072 7.072 0 0 0 -.025.532c0 4.016 3.358 7.273 7.5 7.273h15.938c3.624 0 6.562-2.849 6.562-6.363a6.25 6.25 0 0 0 -.025-.514c-.258 3.286-3.083 5.877-6.537 5.877h-15.938c-3.98 0-7.224-3.007-7.475-6.805z" opacity=".2"/><path d="m16 6c-3.883 0-7.19 2.306-8.613 5.568-3.615.521-6.387 3.509-6.387 7.159 0 .158.015.313.025.468.255-3.404 2.925-6.131 6.362-6.627 1.423-3.262 4.73-5.568 8.613-5.568 4.55 0 8.347 3.16 9.199 7.33 3.095.344 5.526 2.764 5.776 5.793.012-.161.025-.322.025-.486 0-3.266-2.533-5.944-5.801-6.307-.852-4.17-4.649-7.33-9.199-7.33z" fill="#fff" opacity=".2"/><g fill="none" stroke-linecap="round" stroke-linejoin="round" stroke-width="3"><path d="m6.5 10.5 4.5 14 5-10 5 10 4.5-14" opacity=".2" stroke="#000"/><path d="m6.5 9.5 4.5 14 5-10 5 10 4.5-14" stroke="#b4ed74"/></g></svg>

<svg height="32" width="32" xmlns="http://www.w3.org/2000/svg">
    <path d="M16 6c-3.883 0-7.19 2.305-8.613 5.568C3.772 12.089 1 15.077 1 18.727 1 22.744 4.358 26 8.5 26h15.938C28.062 26 31 23.151 31 19.636c0-3.266-2.533-5.943-5.801-6.306C24.347 9.16 20.55 6 16 6z" fill="#3aa8c8"/>
    <path d="M1.025 19.195a7.072 7.072 0 0 0-.025.532C1 23.743 4.358 27 8.5 27h15.938C28.062 27 31 24.151 31 20.637a6.25 6.25 0 0 0-.025-.514C30.717 23.409 27.892 26 24.438 26H8.5c-3.98 0-7.224-3.007-7.475-6.805z" opacity=".2"/>
    <path d="M16 6c-3.883 0-7.19 2.306-8.613 5.568C3.772 12.089 1 15.077 1 18.727c0 .158.015.313.025.468.255-3.404 2.925-6.131 6.362-6.627C8.81 9.306 12.117 7 16 7c4.55 0 8.347 3.16 9.199 7.33 3.095.344 5.526 2.764 5.776 5.793.012-.161.025-.322.025-.486 0-3.266-2.533-5.944-5.801-6.307C24.347 9.16 20.55 6 16 6z" fill="#fff" opacity=".2"/>
    <g fill="none" stroke-linecap="round" stroke-linejoin="round" stroke-width="3">
        <path d="m6.5 10.5 4.5 14 5-10 5 10 4.5-14" opacity=".2" stroke="#000"/>
        <path d="m6.5 9.5 4.5 14 5-10 5 10 4.5-14" stroke="#b4ed74"/>
    </g>
</svg>
